assets/images/Logo_Penta_Black.svg

<?xml version="1.0" encoding="UTF-8"?>
<svg width="3001px" height="702px" viewBox="0 0 3001 702" version="1.1" xmlns="http://www.w3.org/2000/svg" xmlns:xlink="http://www.w3.org/1999/xlink">
    <!-- Generator: Sketch 43.2 (39069) - http://www.bohemiancoding.com/sketch -->
    <title>Combined Shape Copy 10</title>
    <desc>Created with Sketch.</desc>
    <defs></defs>
    <g id="Page-1" stroke="none" stroke-width="1" fill="none" fill-rule="evenodd">
        <path d="M648.414097,312 L953.139829,312 C974.280669,312 991.437176,329.148157 991.437176,350.301481 L991.437176,351.701119 C991.437176,372.860474 974.295008,390.0026 953.149072,390.0026 L686.381344,390.0026 L686.381344,624.0026 L1029.40671,624.0026 C1050.56328,624.0026 1067.70431,641.149614 1067.70431,662.301528 L1067.70431,663.701072 C1067.70431,684.859017 1050.55789,702 1029.40671,702 L686.381344,702 L648.41662,702 C627.255771,702 610.11675,684.852986 610.11675,663.701072 L610.11675,624.0026 L610.11675,390.0026 L610.11675,350.301481 C610.11675,329.142126 627.263056,312 648.414097,312 Z M610.11675,39.6997957 L610.11675,38.3002043 C610.11675,17.1415548 627.264293,0 648.416859,0 L1029.4042,0 C1050.56704,0 1067.70431,17.1475855 1067.70431,38.3002043 L1067.70431,39.6997957 C1067.70431,60.8584452 1050.55677,78 1029.4042,78 L648.416859,78 C627.254022,78 610.11675,60.8524145 610.11675,39.6997957 Z M1830.51226,0 L2361.49824,0 C2382.64806,0 2399.79255,17.1475855 2399.79255,38.3002043 L2399.79255,39.6997957 C2399.79255,60.8584452 2382.64397,78 2361.49013,78 L2135.40862,78 L2135.40862,312.699076 C2135.40862,333.845089 2118.26119,351 2097.10875,351 L2097.4439,351 C2076.28305,351 2059.14403,333.852092 2059.14403,312.699076 L2059.14403,78 L1830.51519,78 C1809.37249,78 1792.21795,60.8524145 1792.21795,39.6997957 L1792.21795,38.3002043 C1792.21795,17.1415548 1809.3629,0 1830.51226,0 Z M38.2998444,0 L268.197155,0 C384.025277,0 477.924787,96.0362 477.924787,214.5 C477.924787,332.9638 384.025277,429 266.926078,429 L76.2645937,429 L76.2645937,663.699076 C76.2645937,684.845089 59.1171579,702 37.9647238,702 L38.29987,702 C17.1390209,702 0,684.852092 0,663.699076 L0,429 L0,389.300204 C0,368.141555 17.1474359,351 38.29987,351 L76.2645937,351 L106.409445,351 L268.197155,351 C341.906884,351 401.660194,289.887 401.660194,214.5 C401.660194,139.113 341.906884,78 266.926078,78 L106.409445,78 L38.3034891,78 C17.1556123,78 0,60.8524145 0,39.6997957 L0,38.3002043 C0,17.1415548 17.1474244,0 38.2998444,0 Z M1715.95336,565.5 L1715.95336,389.301914 C1715.95336,368.145745 1733.10079,351 1754.25323,351 L1753.91808,351 C1775.07893,351 1792.21795,368.144902 1792.21795,389.294211 L1792.21795,663.705789 C1792.21795,684.862715 1775.07052,702 1753.91808,702 L1741.48092,702 C1727.39156,702 1709.1934,692.776673 1700.85456,681.399122 L1296.49809,129.6932 L1296.49809,663.700119 C1296.49809,684.85254 1279.35066,702 1258.19822,702 L1258.53337,702 C1237.37252,702 1220.2335,684.850886 1220.2335,663.696381 L1220.2335,38.3036186 C1220.2335,17.1459841 1237.38094,0 1258.53337,0 L1270.97053,0 C1285.05989,0 1303.30674,9.17926625 1311.70564,20.502465 L1715.95336,565.5 Z M2722.65802,35.1276741 L2997.18651,666.872326 C3005.61593,686.27011 2995.30402,702 2974.15158,702 L2961.71442,702 C2947.62506,702 2931.6909,691.489677 2926.14485,678.524538 L2669.26078,78 L2412.37671,678.524538 C2406.82791,691.496116 2390.90562,702 2376.80714,702 L2364.36998,702 C2343.20913,702 2332.90446,686.272805 2341.33505,666.872326 L2615.86354,35.1276741 C2624.29296,15.7298901 2648.27592,0 2669.42835,0 L2669.09321,0 C2690.25406,0 2714.22743,15.7271954 2722.65802,35.1276741 Z" id="Combined-Shape-Copy-10" fill="#000000"></path>
    </g>
</svg>

<svg version="1.1" viewBox="0 0 3001 702" xmlns="http://www.w3.org/2000/svg">
    <g fill="none" fill-rule="evenodd">
        <path d="m648.41 312h304.73c21.141 0 38.297 17.148 38.297 38.301v1.3996c0 21.159-17.142 38.301-38.288 38.301h-266.77v234h343.03c21.157 0 38.298 17.147 38.298 38.299v1.3995c0 21.158-17.146 38.299-38.298 38.299h-343.03-37.965c-21.161 0-38.3-17.147-38.3-38.299v-39.698-234-39.701c0-21.159 17.146-38.301 38.297-38.301zm-38.297-272.3v-1.3996c0-21.159 17.148-38.3 38.3-38.3h380.99c21.163 0 38.3 17.148 38.3 38.3v1.3996c0 21.159-17.148 38.3-38.3 38.3h-380.99c-21.163 0-38.3-17.148-38.3-38.3zm1220.4-39.7h530.99c21.15 0 38.294 17.148 38.294 38.3v1.3996c0 21.159-17.149 38.3-38.302 38.3h-226.08v234.7c0 21.146-17.147 38.301-38.3 38.301h0.33515c-21.161 0-38.3-17.148-38.3-38.301v-234.7h-228.63c-21.143 0-38.297-17.148-38.297-38.3v-1.3996c0-21.159 17.145-38.3 38.294-38.3zm-1792.2 0h229.9c115.83 0 209.73 96.036 209.73 214.5s-93.9 214.5-211 214.5h-190.66v234.7c0 21.146-17.147 38.301-38.3 38.301h0.33515c-21.161 0-38.3-17.148-38.3-38.301v-234.7-39.7c0-21.159 17.147-38.3 38.3-38.3h37.965 30.145 161.79c73.71 0 133.46-61.113 133.46-136.5s-59.753-136.5-134.73-136.5h-160.52-68.106c-21.148 0-38.303-17.148-38.303-38.3v-1.3996c0-21.159 17.147-38.3 38.3-38.3zm1677.7 565.5v-176.2c0-21.156 17.147-38.302 38.3-38.302h-0.33515c21.161 0 38.3 17.145 38.3 38.294v274.41c0 21.157-17.147 38.294-38.3 38.294h-12.437c-14.089 0-32.288-9.2233-40.626-20.601l-404.36-551.71v534.01c0 21.152-17.147 38.3-38.3 38.3h0.33515c-21.161 0-38.3-17.149-38.3-38.304v-625.39c0-21.158 17.147-38.304 38.3-38.304h12.437c14.089 0 32.336 9.1793 40.735 20.502l404.25 545zm1006.7-530.37 274.53 631.74c8.4294 19.398-1.8825 35.128-23.035 35.128h-12.437c-14.089 0-30.024-10.51-35.57-23.475l-256.88-600.52-256.88 600.52c-5.5488 12.972-21.471 23.475-35.57 23.475h-12.437c-21.161 0-31.466-15.727-23.035-35.128l274.53-631.74c8.4294-19.398 32.412-35.128 53.565-35.128h-0.33514c21.161 0 45.134 15.727 53.565 35.128z" fill="#000"/>
    </g>
</svg>
